Papirus/16x16/apps/deluge.svg

<svg xmlns="http://www.w3.org/2000/svg" width="16" height="16" version="1.1">
 <g style="display:none" transform="translate(0,-32)">
  <path style="fill:#99c3f9;fill-rule:evenodd" d="m 24.811452,24.996951 c -6.049549,-2.467385 -7.648816,3.683738 -6.639688,6.628769 2.195546,6.407462 11.948502,7.605174 18.062738,-3.067723 0,0 0.11598,1.28803 0.180639,1.900859 0.82106,7.781844 -5.621926,12.735535 -12.253379,12.638715 -6.631454,-0.09682 -8.657036,-2.672368 -10.611083,-5.637583 -3.170275,-4.810809 -2.429788,-11.327408 1.78168,-14.840553 4.864733,-3.959831 8.798281,-0.09585 9.479093,2.377516 z"/>
 </g>
 <g style="display:none" transform="translate(0,-32)">
  <path style="fill:#99c3f9;fill-rule:evenodd;stroke:#094491 icc-color(sRGB, 0.18046845, 0.27837034, 0.41960784);stroke-width:1.33399999" d="m 23.761543,24.179576 c -6.481311,-1.72424 -6.932125,6.183803 -5.453851,8.969604 2.408248,4.538333 12.206251,5.377175 17.706883,-3.282742 0,0 0.07651,2.193563 0.02062,2.77892 -0.534334,5.596549 -6.848986,9.789262 -11.999526,9.621298 -5.243605,-0.170999 -8.282469,-2.549917 -10.154056,-5.379263 -3.036492,-4.590373 -2.048612,-10.811985 1.554101,-13.80496 4.248899,-3.646516 7.44994,-0.562347 8.325827,1.097143 z"/>
 </g>
 <g style="display:none" transform="translate(0,-32)">
  <path style="fill:#99c3f9;fill-rule:evenodd;stroke:#094491 icc-color(sRGB, 0.18046845, 0.27837034, 0.41960784);stroke-width:2" d="m 23.507553,23.925586 c -6.495438,-1.064032 -6.790118,6.421446 -5.149063,9.579179 2.304561,4.434459 10.903063,6.282759 17.3005,-2.825561 0,0 -0.02509,1.990372 -0.08098,2.575729 -0.534334,5.596549 -6.391805,8.925697 -11.542345,8.757733 -5.243605,-0.170999 -8.247979,-2.119778 -10.001662,-5.023677 -2.772156,-4.590373 -2.467304,-9.592836 0.487345,-12.585811 3.100966,-3.879425 7.831125,-2.714919 8.986201,-0.477592 z"/>
 </g>
 <g style="display:none" transform="translate(0,-32)">
  <path style="fill:url(#radialGradient5878);fill-rule:evenodd" d="m 23.55546,23.805666 c -6.490966,-1.345852 -7.700279,4.84717 -6.759909,8.059555 1.100923,3.760845 4.033145,7.507508 11.754513,5.50458 -3.268904,5.846892 -11.255492,4.570412 -13.940353,0.387138 -2.563055,-3.993493 -2.992402,-9.05746 -1.115519,-11.776277 4.049097,-6.655711 9.485026,-4.029293 10.061268,-2.174996 z"/>
 </g>
 <path style="fill:#225394;fill-rule:evenodd" d="M 7.5185422,0.400218 3.17964,6.720317 C 1.6872319,8.893891 1.7037941,11.241904 2.709456,13.015358 3.7151178,14.788812 5.6940453,16 8.0015107,16 10.308901,16 12.286696,14.788822 13.291435,13.015358 14.296173,11.241895 14.312132,8.89374 12.821251,6.718963 L 8.4810753,0.387895 C 8.106318,-0.12702 7.9358587,-0.135681 7.5185422,0.400218 Z"/>
 <path style="fill:#358eff;fill-rule:evenodd" d="M 8.0039062,1.7128906 4.7949219,6.6171875 c 0.5967516,-0.4204781 1.2918542,-0.6462453 2,-0.6132813 0.5766184,0.026848 1.1514213,0.2201785 1.6445312,0.5703126 C 9.1339796,7.0679945 8.8170761,8.0970056 8.0839545,8.3381643 7.902183,8.3774318 7.7279317,8.4085529 7.5617574,8.4414069 6.6899442,8.5834442 6.0252473,9.3664164 6.024648,10.333984 c -2e-7,1.089628 0.8195829,1.916015 1.8125,1.916016 h 0.00586 c 0.033931,3e-4 0.06783,0.0022 0.1015625,0.0059 0.3109166,0.01339 0.5931008,-0.01527 0.8584027,-0.06071 0.6556403,-0.07574 1.2425268,-0.335863 1.7990378,-0.582426 0.24456,-0.128981 0.466503,-0.270835 0.643341,-0.421315 1.482783,-1.177151 1.311642,-2.4849623 0.420665,-3.8671872 z"/>
 <path style="fill:#c3dcfc;fill-rule:evenodd" d="M 6.7486868,7.002229 C 5.8956793,6.962519 5.0166096,7.45389 4.494228,8.430148 3.7344001,9.850159 3.8300312,11.551071 4.9249045,12.769349 6.5160898,14.539879 8.8585723,14.211654 10,12.972144 9.2360708,13.213883 8.5515356,13.313725 7.9425685,13.250892 h -0.00513 C 6.3840941,13.250891 5.0249997,11.945085 5.025,10.334292 5.0258891,8.898977 6.1335525,7.677683 7.5009051,7.45491 7.6188476,7.4202 7.7382569,7.39494 7.8598021,7.39035 7.5189618,7.148307 7.1364182,7.020282 6.7486868,7.002229 Z"/>
 <g style="display:none" transform="translate(0,-32)">
  <path style="fill:#99c3f9;fill-rule:evenodd" d="m 21.55277,22.974939 c -5.188765,1.005551 -6.173294,6.973638 -4.694095,10.155871 2.191227,4.714034 8.449957,8.07696 17.664862,0.691234 -5.828901,10.827975 -14.873199,7.043001 -17.313798,4.977307 -1.97159,-1.66873 -4.164846,-4.855384 -4.11832,-8.341257 0.09522,-7.134172 6.604293,-9.266569 8.461351,-7.483155 z"/>
 </g>
 <g style="display:none" transform="translate(0,-32)">
  <path style="opacity:0.68800001;fill:url(#radialGradient4375);fill-rule:evenodd" d="m 23.956644,1.939572 -11.98159,18.384686 c -3.9618093,5.166305 -3.6931007,11.439356 -2.4054307,15.8855 5.3079527,10.817522 14.5668877,9.659123 14.5668877,9.659123 0,0 6.868403,-0.005 11.475831,-5.120874 2.283123,-2.535051 5.325726,-9.801674 2.662706,-16.234991 -0.49634,-1.028711 -3.75284,-6.551522 -4.429455,-7.554788 z"/>
 </g>
</svg>

<svg xmlns="http://www.w3.org/2000/svg" width="16" height="16" version="1.1">
 <path style="fill:#225394" d="M 7.5185,0.40022 3.1796,6.7203 C 1.6872,8.8939 1.7038,11.242 2.7095,13.015 3.7151,14.789 5.694,16 8.0015,16 10.309,16 12.287,14.789 13.291,13.015 14.296,11.242 14.312,8.8937 12.821,6.719 L 8.4811,0.38789 C 8.1063,-0.12702 7.9359,-0.13568 7.5185,0.40022 Z"/>
 <path style="fill:#358eff" d="M 8.0039,1.7129 4.7949,6.6172 C 5.3917,6.1967 6.0868,5.9709 6.7949,6.0039 7.3715,6.0308 7.9463,6.2241 8.4395,6.5742 9.134,7.068 8.8171,8.097 8.084,8.3382 7.9022,8.3774 7.7279,8.4086 7.5618,8.4414 6.6899,8.5834 6.0252,9.3664 6.0246,10.334 6.0246,11.424 6.8442,12.25 7.8371,12.25 H 7.843 C 7.8769,12.25 7.9108,12.252 7.9446,12.256 8.2555,12.269 8.5377,12.241 8.803,12.195 9.4586,12.119 10.046,11.859 10.602,11.613 10.847,11.484 11.069,11.342 11.245,11.191 12.728,10.014 12.557,8.7065 11.666,7.3243 Z"/>
 <path style="fill:#c3dcfc" d="M 6.7487,7.0022 C 5.8957,6.9625 5.0166,7.4539 4.4942,8.4301 3.7344,9.8502 3.83,11.551 4.9249,12.769 6.5161,14.54 8.8586,14.212 10,12.972 9.2361,13.214 8.5515,13.314 7.9426,13.251 H 7.9374 C 6.3841,13.251 5.025,11.945 5.025,10.334 5.0259,8.899 6.1336,7.6777 7.5009,7.4549 7.6188,7.4202 7.7383,7.3949 7.8598,7.3903 7.519,7.1483 7.1364,7.0203 6.7487,7.0022 Z"/>
</svg>
